X: 3
T: Garryowen
R: jig
M: 6/8
L: 1/8
K: Ador
edc BAG | B>cB B2 g/f/ | edc BAG | A>BA A2 g/f/ |edc BAG | B>cd g2 a | bag e/f/ge | dBG A2 :|{d/e/}d2 B {d/e/}d2 B | {d/e/}d2 B {d/e/}dgf | {e/f/}e2 c {e/f/}e2 c | {e/f/}e2 c {e/f/}e2 f |g2 a b2 a | gfe {d/e/}dBc | d>ef gdB | A>BA A2 :|


Tune 1372	Setting 14728

